icons/desktop/16/svg/permission-16.svg

<!-- This Source Code Form is subject to the terms of the Mozilla Public
   - License, v. 2.0. If a copy of the MPL was not distributed with this
   - file, You can obtain one at http://mozilla.org/MPL/2.0/. -->
<svg xmlns="http://www.w3.org/2000/svg" width="16" height="16" fill="context-fill" fill-opacity="context-fill-opacity" viewBox="0 0 16 16">
    <path d="M3 8c1.654 0 3 1.346 3 3s-1.346 3-3 3-3-1.346-3-3 1.346-3 3-3m0 1.5c-.827 0-1.5.673-1.5 1.5s.673 1.5 1.5 1.5 1.5-.673 1.5-1.5S3.827 9.5 3 9.5M16 12H7.12c.077-.322.13-.654.13-1 0-.171-.03-.334-.05-.5H16zM13 2c1.654 0 3 1.346 3 3s-1.346 3-3 3-3-1.346-3-3 1.346-3 3-3m0 1.5c-.827 0-1.5.673-1.5 1.5s.673 1.5 1.5 1.5 1.5-.673 1.5-1.5-.673-1.5-1.5-1.5M8.8 4.5c-.02.166-.05.329-.05.5 0 .346.053.678.13 1H0V4.5z" />
</svg>

<svg width="16" height="16" viewBox="0 0 16 16" fill="none" xmlns="http://www.w3.org/2000/svg">
<path fill-rule="evenodd" clip-rule="evenodd" d="M3 8C4.654 8 6 9.346 6 11C6 12.654 4.654 14 3 14C1.346 14 0 12.654 0 11C0 9.346 1.346 8 3 8ZM3 9.5C2.173 9.5 1.5 10.173 1.5 11C1.5 11.827 2.173 12.5 3 12.5C3.827 12.5 4.5 11.827 4.5 11C4.5 10.173 3.827 9.5 3 9.5Z" fill="black"/>
<path d="M16 12H7.11914C7.19714 11.678 7.25 11.346 7.25 11C7.25 10.829 7.21922 10.666 7.19922 10.5H16V12Z" fill="black"/>
<path fill-rule="evenodd" clip-rule="evenodd" d="M13 2C14.654 2 16 3.346 16 5C16 6.654 14.654 8 13 8C11.346 8 10 6.654 10 5C10 3.346 11.346 2 13 2ZM13 3.5C12.173 3.5 11.5 4.173 11.5 5C11.5 5.827 12.173 6.5 13 6.5C13.827 6.5 14.5 5.827 14.5 5C14.5 4.173 13.827 3.5 13 3.5Z" fill="black"/>
<path d="M8.80078 4.5C8.78078 4.66599 8.75 4.82901 8.75 5C8.75 5.34599 8.80286 5.67801 8.88086 6H0V4.5H8.80078Z" fill="black"/>
</svg>
